main/svg/wheatTexture3.svg

<svg xmlns="http://www.w3.org/2000/svg" width="32" height="32"><path d="m2.004 25 3.992 4v3l-3.992-4.004ZM12 25l4 4v3l-4-4.004Zm9.996 0 4.008 4v3l-4.008-4.004Zm0 0" style="stroke:none;fill-rule:nonzero;fill:#000;fill-opacity:1"/><path d="m29.996 21.996-3.992 4.008V29L30 25Zm-9.996 0-4 4.008V29l4-4Zm-10 0-4.004 4.008V29L10 25ZM2.004 19l3.992 3.996V26l-3.992-4ZM12 19l4 3.996V26l-4-4Zm9.996 0 4.008 3.996V26l-4.008-4Zm0 0" style="stroke:none;fill-rule:nonzero;fill:#000;fill-opacity:1"/><path d="m29.996 16-3.992 4v2.996L30 19ZM20 16l-4 4v2.996L20 19Zm-10 0-4.004 4v2.996L10 19Zm0 0" style="stroke:none;fill-rule:nonzero;fill:#000;fill-opacity:1"/></svg>

<svg xmlns="http://www.w3.org/2000/svg" width="32" height="32"><path d="m2 25 4 4v3l-4-4Zm10 0 4 4v3l-4-4Zm10 0 4 4v3l-4-4Zm8-3-4 4v3l4-4Zm-10 0-4 4v3l4-4Zm-10 0-4 4v3l4-4Zm-8-3 4 4v3l-4-4Zm10 0 4 4v3l-4-4Zm10 0 4 4v3l-4-4Zm8-3-4 4v3l4-4Zm-10 0-4 4v3l4-4Zm-10 0-4 4v3l4-4Zm0 0" style="stroke:none;fill-rule:nonzero;fill:#000;fill-opacity:1"/></svg>
